app/img/sentinel_logo.svg

<svg width="63" height="52" viewBox="0 0 63 52" fill="none" xmlns="http://www.w3.org/2000/svg">
<g clip-path="url(#clip0_338:13019)">
<path d="M30.5975 30.7418C35.5062 29.7435 39.5597 28.9171 39.6065 28.9061L39.6917 28.8855L35.058 22.5399C32.5087 19.0501 30.4242 16.1805 30.4242 16.164C30.4242 16.1475 35.2092 0.962 35.2367 0.908375C35.2464 0.8905 38.5024 7.36263 43.1306 16.5985L51.0699 32.4399L51.1304 32.5609H21.6751L30.5975 30.7418Z" fill="white"/>
<path d="M12.9219 28.8057C12.9219 28.7975 15.1054 24.4332 17.7742 19.1079L22.6266 9.4265L28.2875 3.965C31.3978 0.960624 33.9511 -1.502 33.9608 -1.50613C33.9404 -1.41503 33.91 -1.32648 33.87 -1.24213L27.7238 13.9186L21.6875 28.8099H17.3026C15.8424 28.8248 14.3821 28.8234 12.9219 28.8057Z" fill="white"/>
</g>
<path d="M8.33239 41.2727H9.3608C9.28125 39.5057 7.75284 38.1989 5.58807 38.1989C3.44034 38.1989 1.78693 39.4886 1.78693 41.3636C1.78693 42.858 2.84375 43.7955 4.66761 44.3352L6.05966 44.7443C7.50284 45.1648 8.49148 45.7045 8.49148 46.892C8.49148 48.2898 7.22443 49.2273 5.4858 49.2273C3.91761 49.2273 2.69034 48.4716 2.5767 47.0909H1.4858C1.6108 48.9318 3.1108 50.1989 5.4858 50.1989C8.00852 50.1989 9.51989 48.7727 9.51989 46.9091C9.51989 44.9773 7.83807 44.2045 6.3608 43.7898L5.13352 43.4375C4.00284 43.1193 2.81534 42.5455 2.81534 41.3182C2.81534 40.0682 3.93466 39.1534 5.55966 39.1534C7.09943 39.1534 8.2017 39.9773 8.33239 41.2727ZM15.6449 50.1818C17.3949 50.1818 18.571 49.233 18.9688 48.1364L18.0085 47.8239C17.6733 48.608 16.8835 49.2557 15.6449 49.2557C13.8608 49.2557 12.7301 47.9545 12.6847 45.9375H19.1847V45.4375C19.1847 42.5227 17.3835 41.1534 15.4915 41.1534C13.2301 41.1534 11.6676 43.0455 11.6676 45.6875C11.6676 48.3352 13.2017 50.1818 15.6449 50.1818ZM12.6903 45.0455C12.7983 43.4205 13.8949 42.0739 15.4915 42.0739C17.054 42.0739 18.1506 43.3636 18.1506 45.0455H12.6903ZM22.6747 44.5455C22.6747 43.0227 23.6747 42.0852 25.0497 42.0852C26.3906 42.0852 27.2543 42.983 27.2543 44.4091V50H28.2656V44.3466C28.2656 42.2784 27.0668 41.1591 25.3054 41.1591C24.027 41.1591 23.1463 41.75 22.7372 42.642H22.6463V41.2727H21.6634V50H22.6747V44.5455ZM34.6165 41.2727H32.7699V39.1818H31.7528V41.2727H30.4517V42.1534H31.7528V47.9602C31.7528 49.3864 32.8778 50.1307 33.9972 50.1307C34.4176 50.1307 34.7017 50.0511 34.8949 49.9773L34.679 49.0625C34.5369 49.1023 34.3551 49.142 34.0881 49.142C33.4006 49.142 32.7699 48.8182 32.7699 47.7216V42.1534H34.6165V41.2727ZM37.1747 50H38.1918V41.2727H37.1747V50ZM37.6918 39.7727C38.1065 39.7727 38.4531 39.4432 38.4531 39.0455C38.4531 38.6477 38.1065 38.3182 37.6918 38.3182C37.277 38.3182 36.9361 38.6477 36.9361 39.0455C36.9361 39.4432 37.277 39.7727 37.6918 39.7727ZM42.1278 44.5455C42.1278 43.0227 43.1278 42.0852 44.5028 42.0852C45.8438 42.0852 46.7074 42.983 46.7074 44.4091V50H47.7188V44.3466C47.7188 42.2784 46.5199 41.1591 44.7585 41.1591C43.4801 41.1591 42.5994 41.75 42.1903 42.642H42.0994V41.2727H41.1165V50H42.1278V44.5455ZM54.1605 50.1818C55.9105 50.1818 57.0866 49.233 57.4844 48.1364L56.5241 47.8239C56.1889 48.608 55.3991 49.2557 54.1605 49.2557C52.3764 49.2557 51.2457 47.9545 51.2003 45.9375H57.7003V45.4375C57.7003 42.5227 55.8991 41.1534 54.0071 41.1534C51.7457 41.1534 50.1832 43.0455 50.1832 45.6875C50.1832 48.3352 51.7173 50.1818 54.1605 50.1818ZM51.206 45.0455C51.3139 43.4205 52.4105 42.0739 54.0071 42.0739C55.5696 42.0739 56.6662 43.3636 56.6662 45.0455H51.206ZM61.1903 38.3636H60.179V50H61.1903V38.3636Z" fill="white"/>
<defs>
<clipPath id="clip0_338:13019">
<rect width="45" height="34" fill="white" transform="translate(9)"/>
</clipPath>
</defs>
</svg>

<svg width="63" height="52" fill="none" xmlns="http://www.w3.org/2000/svg"><g clip-path="url(#clip0_338:13019)" fill="#fff"><path d="M30.598 30.742a7125.2 7125.2 0 009.008-1.836l.086-.02-4.634-6.346c-2.55-3.49-4.634-6.36-4.634-6.376 0-.017 4.785-15.202 4.813-15.256.01-.018 3.265 6.455 7.894 15.69L51.07 32.44l.06.12H21.675l8.922-1.818zM12.922 28.806c0-.009 2.183-4.373 4.852-9.698l4.853-9.681 5.66-5.462a2359.44 2359.44 0 015.674-5.471c-.02.091-.051.18-.091.264l-6.146 15.16-6.037 14.892h-4.384c-1.46.015-2.92.013-4.381-.004z"/></g><path d="M8.332 41.273h1.029c-.08-1.767-1.608-3.074-3.773-3.074-2.148 0-3.801 1.29-3.801 3.165 0 1.494 1.057 2.431 2.88 2.971l1.393.41c1.443.42 2.431.96 2.431 2.147 0 1.398-1.267 2.335-3.005 2.335-1.568 0-2.796-.755-2.91-2.136h-1.09c.125 1.84 1.625 3.108 4 3.108 2.523 0 4.034-1.426 4.034-3.29 0-1.932-1.682-2.704-3.16-3.12l-1.226-.352c-1.131-.318-2.319-.892-2.319-2.119 0-1.25 1.12-2.165 2.745-2.165 1.54 0 2.642.824 2.772 2.12zm7.313 8.909c1.75 0 2.926-.949 3.324-2.046l-.96-.312c-.336.784-1.125 1.432-2.364 1.432-1.784 0-2.915-1.301-2.96-3.319h6.5v-.5c0-2.914-1.801-4.284-3.693-4.284-2.262 0-3.824 1.892-3.824 4.535 0 2.647 1.534 4.494 3.977 4.494zm-2.955-5.137c.108-1.625 1.205-2.971 2.802-2.971 1.562 0 2.659 1.29 2.659 2.971h-5.46zm9.985-.5c0-1.522 1-2.46 2.375-2.46 1.34 0 2.204.898 2.204 2.324V50h1.012v-5.653c0-2.069-1.2-3.188-2.96-3.188-1.279 0-2.16.591-2.569 1.483h-.09v-1.37h-.984V50h1.012v-5.455zm11.942-3.272H32.77v-2.091h-1.017v2.09h-1.301v.881h1.3v5.807c0 1.426 1.126 2.17 2.245 2.17.42 0 .705-.079.898-.153l-.216-.914c-.142.04-.324.079-.59.079-.688 0-1.32-.324-1.32-1.42v-5.569h1.848v-.88zM37.175 50h1.017v-8.727h-1.017V50zm.517-10.227c.414 0 .761-.33.761-.728 0-.397-.347-.727-.761-.727-.415 0-.756.33-.756.727 0 .398.341.728.756.728zm4.436 4.772c0-1.522 1-2.46 2.375-2.46 1.34 0 2.204.898 2.204 2.324V50h1.012v-5.653c0-2.069-1.2-3.188-2.96-3.188-1.279 0-2.16.591-2.569 1.483h-.09v-1.37h-.983V50h1.01v-5.455zm12.032 5.637c1.75 0 2.927-.949 3.324-2.046l-.96-.312c-.335.784-1.125 1.432-2.364 1.432-1.784 0-2.914-1.301-2.96-3.319h6.5v-.5c0-2.914-1.8-4.284-3.693-4.284-2.261 0-3.824 1.892-3.824 4.535 0 2.647 1.534 4.494 3.977 4.494zm-2.954-5.137c.108-1.625 1.204-2.971 2.801-2.971 1.563 0 2.66 1.29 2.66 2.971h-5.461zm9.984-6.681H60.18V50h1.011V38.364z" fill="#fff"/><defs><clipPath id="clip0_338:13019"><path fill="#fff" transform="translate(9)" d="M0 0h45v34H0z"/></clipPath></defs></svg>
